static/fa/svgs/solid/gauge-simple-high.svg

<svg xmlns="http://www.w3.org/2000/svg" viewBox="0 0 512 512"><!--! Font Awesome Free 6.1.1 by @fontawesome - https://fontawesome.com License - https://fontawesome.com/license/free (Icons: CC BY 4.0, Fonts: SIL OFL 1.1, Code: MIT License) Copyright 2022 Fonticons, Inc.--><path d="M512 256c0 141.4-114.6 256-256 256S0 397.4 0 256 114.6 0 256 0s256 114.6 256 256zm-207.3 54.4 76.6-147.3c6.1-11.8 1.5-26.3-10.2-32.4-11.8-6.1-26.3-1.5-32.4 10.2l-76.6 147.4c-2-.2-4-1.2-7-1.2-34.4 0-64 29.6-64 64.9 0 35.3 29.6 64 64 64 36.2 0 64.9-28.7 64.9-64 0-15.9-5.8-30.4-15.3-41.6z"/></svg>

<svg xmlns="http://www.w3.org/2000/svg" viewBox="0 0 512 512"><!--! Font Awesome Free 6.1.1 by @fontawesome - https://fontawesome.com License - https://fontawesome.com/license/free (Icons: CC BY 4.0, Fonts: SIL OFL 1.1, Code: MIT License) Copyright 2022 Fonticons, Inc. --><path d="M512 256C512 397.4 397.4 512 256 512C114.6 512 0 397.4 0 256C0 114.6 114.6 0 256 0C397.4 0 512 114.6 512 256zM304.7 310.4L381.3 163.1C387.4 151.3 382.8 136.8 371.1 130.7C359.3 124.6 344.8 129.2 338.7 140.9L262.1 288.3C260.1 288.1 258.1 287.1 255.1 287.1C220.7 287.1 191.1 316.7 191.1 352C191.1 387.3 220.7 416 255.1 416C291.3 416 320 387.3 320 352C320 336.1 314.2 321.6 304.7 310.4L304.7 310.4z"/></svg>
